X: 58
T: Shooting
N: Morris dance tune.
Z: 1997 by John Chambers <jc@trillian.mit.edu>
M: 9/8
L: 1/8
P: A+3x(AABBB)+AA
K: G
D \
|: "G"G2G B>AG Bcd | "D7"A2A A2B c3 | "C"e>dc "G"BAG BdB | G>AB "D7"c2A "G"G3 :|
|: "G"d2c B>AG Bd2 | "D7"A2B A2B c3 | "C"e>dc "G"BAG BdB | G>AB "D7"c2A "G"G3 :|


